X:1
T:Saudades
T:Along the stream
T:To Bernard van Dieren
T:Saudades
T:Peter Warlock
T:1. Along the stream
T:Li Tai Po (trans. Launcelot Cranmer-Byng) 
T:Creative Commons copyright waiver (CC0 1.0 Universal)
T:Creative Commons copyright waiver (CC0 1.0 Universal)
C:Peter Warlock
Z:Li Tai Po
Z:Creative Commons copyright waiver (CC0 1.0 Universal)
%%score 1 { ( 2 3 ) | ( 4 5 6 ) }
L:1/8
Q:1/8=48
M:none
K:C
V:1 treble nm="Voice"
V:2 treble nm="Piano"
V:3 treble 
V:4 bass 
V:5 bass 
V:6 bass 
V:1
"^Andante  (about 96)""^TRANSCRIBER:  this song does not use barlines or a time signature, so visual measure numbering is \ndisabled\n- but the Status Bar will still report the internal measure numbers\n" x8 x2 | %1
w: |
 x8 x2 |!p! z ^F ^G B ^c B ^c e | ^f2 e !tenuto!B2 B z ^c | e e e A B =c | %5
w: |The rust- ling night- fall strews my|gown with ro- ses, And|wine- flush'd pe- tals bring for-|
 d3/2 d/ d3 ^c (3:2:2_B B2 A G | (3:2:2e d2 !tenuto!^c !tenuto!=B E2 z2 z4 | %7
w: get- ful- ness Of sha- dow af- ter|sha- dow strid- ing past:|
 z2 (3:2:2B2 ^c d2 ^c ^A | (3:2:2B2 B (3^d3/2 ^A/ A z2 z B | %9
w: I a- rise with the|stars ex- ult- ant- ly, And|
 B A/ A/ =d c/ c/ _B3/2 _B/ A3/2 A/ ^G =B | (A2 =G) z z2 z2 | (_A3 _B) _c2 (_B=G) | %12
w: fol- low the sweep of the moon a- long the hush- ing|stream, _|Where _ no birds *|
"^TRANSCRIBER:  we have to\nassume the omission of an\naugmentation dot on beat 1\n" (=A6- AG) | %13
w: wake. _ _|
 z4 z4 | z2 z2 ^G2 ^G ^G | ^G2 A2 (=f2 e2) (3:2:2z2 d (3:2:2c2 _B | %16
w: |On- ly the|long- drawn sigh _ of wa- ry|
 (3:2:2_A2 F z2 z2 (3=G3/2 G/ G- G/ z/ G | _B4 z4 z2 z2 z2 | !fermata!z8 |] %19
w: voi- ces whis- per- ing _ Fare-|well!||
V:2
!mp! z ((^fG) B^c=a ^f[^F-d] [^F^d]2) | z2 z2 !tenuto!^c4 !tenuto!^G2 | %2
!p! (!tenuto!^F4 !tenuto!^G3 !tenuto!A | B4) (!tenuto!E3 !tenuto!^F | !tenuto!G2) ^F4 | z8 z2 | %6
 z8 z4 | z8 | z8 | z8 z2 | z8 | z8 | z8 | z8 | z8 | z8 z4 | z8 z2 | z8 z4 z2 | ^C8 |] %19
V:3
 x3 B2 ^A =A4 | x2 x2 ^F4 x2 | ^D4 D3 E | =G4 ^C4 | E2 (!tenuto!E3 !tenuto!_E) | x10 | x12 | x8 | %8
 x8 | x10 | x8 | x8 | _E8 | C8 | ^^F4 ^G4- | G^E =E2 ^D^C =D=C ED _G2 | x10 | x14 | x8 |] %19
V:4
"_cantabile" !tenuto!^C3 !tenuto!^D !tenuto!E2 !tenuto!^D!tenuto!^B, !tenuto!!fermata!^C2 | %1
 =CA,- (3A, CA, D2 ^CD- (3D^CD | z8 | z8 | z4 z2 | z8 z2 | z8 z4 | z8 | z8 | z8 z2 | z8 | z8 | z8 | %13
 z8 | z8 | z8 z4 | z8 z2 | z2 F2 _B,4 [^D,,B,,^G,]4 z2 | [E,^G,^A,]8 |] %19
V:5
 x10 | x4 _B,2 A,_B,- (3_B,A,_B, | x8 | x8 | x6 | x10 | %6
 ^G,2 A,2"_TRANSCRIBER:   assume missing \naugmentation dot - voice 2, B♭, beat 3\n" _B,3 A, G,2 A,2 | %7
 x8 | x8 | x10 | x8 | x8 | x8 | x8 | x8 | x12 | x10 | [_E,,_A,,_G,]4 x4 x4 x2 | x8 |] %19
V:6
 x10 | x2 x2 z !tenuto!^G,,- ^G,,4 | x8 | x8 | x6 | x10 | x12 | x8 | x8 | x10 | x8 | x8 | x8 | x8 | %14
 x8 | x12 | x10 | x14 | x8 |] %19

